src/shared/assets/Withdraw.svg

<svg width="20" height="21" viewBox="0 0 20 21" fill="none" xmlns="http://www.w3.org/2000/svg">
<path id="Union" fill-rule="evenodd" clip-rule="evenodd" d="M1.99527 2.51871V18.4809H14.7429V16.5H16.7381V19.3677C16.7381 19.9799 16.2418 20.4762 15.6296 20.4762H1.10849C0.496286 20.4762 0 19.9799 0 19.3677V1.63192C0 1.01972 0.496286 0.523438 1.10849 0.523438H15.6296C16.2418 0.523438 16.7381 1.01972 16.7381 1.63192V4.5H14.7429V2.51871H1.99527ZM15.0052 6.43863C14.6156 6.82824 14.6156 7.4599 15.0052 7.84951L16.6579 9.50229H9.86608C9.3151 9.50229 8.86845 9.94894 8.86845 10.4999C8.86845 11.0509 9.3151 11.4976 9.86608 11.4976H16.5637L15.0052 13.0561C14.6156 13.4457 14.6156 14.0774 15.0052 14.467C15.3948 14.8566 16.0264 14.8566 16.416 14.467L19.7081 11.175C19.9071 10.9759 20.0045 10.7137 20.0001 10.4528C20.0045 10.192 19.9071 9.92972 19.7081 9.73067L16.416 6.43863C16.0264 6.04903 15.3948 6.04903 15.0052 6.43863Z" fill="#F44336"/>
</svg>

<svg xmlns="http://www.w3.org/2000/svg" width="20" height="21" fill="none"><path fill="#F44336" fill-rule="evenodd" d="M1.995 2.519V18.48h12.748V16.5h1.995v2.868c0 .612-.496 1.108-1.108 1.108H1.108A1.108 1.108 0 0 1 0 19.368V1.632C0 1.02.496.523 1.108.523H15.63c.612 0 1.108.497 1.108 1.109V4.5h-1.995V2.519H1.995Zm13.01 3.92a.998.998 0 0 0 0 1.41l1.653 1.653H9.866a.998.998 0 1 0 0 1.996h6.698l-1.559 1.558a.998.998 0 0 0 1.411 1.411l3.292-3.292a.995.995 0 0 0 .292-.722.995.995 0 0 0-.292-.722l-3.292-3.292a.998.998 0 0 0-1.41 0Z" clip-rule="evenodd"/></svg>
